tools/download-figma-icons/icons/outlined-large/apartment-building-alternative.svg

<svg width="64" height="64" viewBox="0 0 64 64" fill="none" xmlns="http://www.w3.org/2000/svg">
<path fill-rule="evenodd" clip-rule="evenodd" d="M32.8803 0.284998L63.38 22.2847L63.37 22.2947C64.04 22.7747 64.19 23.7147 63.71 24.3847C63.41 24.7847 62.96 25.0047 62.49 25.0047C62.18 25.0047 61.88 24.9147 61.61 24.7247L58.99 22.8347V62.4943C58.99 63.3243 58.32 63.9943 57.49 63.9943H6.49062C5.66063 63.9943 4.99064 63.3243 4.99064 62.4943V22.8247L2.37067 24.7147C1.70067 25.1947 0.770684 25.0447 0.280689 24.3747C-0.199305 23.7047 -0.049307 22.7747 0.620685 22.2847L31.1203 0.284998C31.6503 -0.094998 32.3503 -0.094998 32.8803 0.284998ZM19.0005 49.0044V61.0043H26.0004V49.0044H19.0005ZM29.0004 61.0043H56.0001V20.6648L32.0003 3.35496L8.0006 20.6648V61.0043H16.0005V47.5045C16.0005 46.6745 16.6705 46.0045 17.5005 46.0045H27.5004C28.3304 46.0045 29.0004 46.6745 29.0004 47.5045V61.0043ZM17.5005 22.0046H27.5004C28.3304 22.0046 29.0004 22.6746 29.0004 23.5046C29.0004 24.3346 28.3304 25.0046 27.5004 25.0046H17.5005C16.6705 25.0046 16.0005 24.3346 16.0005 23.5046C16.0005 22.6746 16.6705 22.0046 17.5005 22.0046ZM27.5004 30.0045H17.5005C16.6705 30.0045 16.0005 30.6745 16.0005 31.5045C16.0005 32.3345 16.6705 33.0045 17.5005 33.0045H27.5004C28.3304 33.0045 29.0004 32.3345 29.0004 31.5045C29.0004 30.6745 28.3304 30.0045 27.5004 30.0045ZM17.5005 38.0044H27.5004C28.3304 38.0044 29.0004 38.6744 29.0004 39.5044C29.0004 40.3344 28.3304 41.0044 27.5004 41.0044H17.5005C16.6705 41.0044 16.0005 40.3344 16.0005 39.5044C16.0005 38.6744 16.6705 38.0044 17.5005 38.0044ZM36.5003 25.0046H46.5002C47.3302 25.0046 48.0002 24.3346 48.0002 23.5046C48.0002 22.6746 47.3302 22.0046 46.5002 22.0046H36.5003C35.6703 22.0046 35.0003 22.6746 35.0003 23.5046C35.0003 24.3346 35.6703 25.0046 36.5003 25.0046ZM46.5002 33.0045H36.5003C35.6703 33.0045 35.0003 32.3345 35.0003 31.5045C35.0003 30.6745 35.6703 30.0045 36.5003 30.0045H46.5002C47.3302 30.0045 48.0002 30.6745 48.0002 31.5045C48.0002 32.3345 47.3302 33.0045 46.5002 33.0045ZM36.5003 41.0044H46.5002C47.3302 41.0044 48.0002 40.3344 48.0002 39.5044C48.0002 38.6744 47.3302 38.0044 46.5002 38.0044H36.5003C35.6703 38.0044 35.0003 38.6744 35.0003 39.5044C35.0003 40.3344 35.6703 41.0044 36.5003 41.0044ZM46.5002 49.0043H36.5003C35.6703 49.0043 35.0003 48.3343 35.0003 47.5043C35.0003 46.6743 35.6703 46.0044 36.5003 46.0044H46.5002C47.3302 46.0044 48.0002 46.6743 48.0002 47.5043C48.0002 48.3343 47.3302 49.0043 46.5002 49.0043Z" fill="black"/>
</svg>

<svg xmlns="http://www.w3.org/2000/svg" width="64" height="64" fill="none" viewBox="0 0 64 64"><path fill="currentColor" fill-rule="evenodd" d="m32.88.285 30.5 22-.01.01c.67.48.82 1.42.34 2.09-.3.4-.75.62-1.22.62-.31 0-.61-.09-.88-.28l-2.62-1.89v39.66c0 .83-.67 1.5-1.5 1.5h-51c-.83 0-1.5-.67-1.5-1.5v-39.67l-2.62 1.89c-.67.48-1.6.33-2.09-.34-.48-.67-.33-1.6.34-2.09l30.5-22c.53-.38 1.23-.38 1.76 0M19 49.005v12h7v-12zm10 12h27v-40.34L32 3.355 8 20.665v40.34h8v-13.5c0-.83.67-1.5 1.5-1.5h10c.83 0 1.5.67 1.5 1.5zm-11.5-39h10c.83 0 1.5.67 1.5 1.5s-.67 1.5-1.5 1.5h-10c-.83 0-1.5-.67-1.5-1.5s.67-1.5 1.5-1.5m10 8h-10c-.83 0-1.5.67-1.5 1.5s.67 1.5 1.5 1.5h10c.83 0 1.5-.67 1.5-1.5s-.67-1.5-1.5-1.5m-10 8h10c.83 0 1.5.67 1.5 1.5s-.67 1.5-1.5 1.5h-10c-.83 0-1.5-.67-1.5-1.5s.67-1.5 1.5-1.5m19-13h10c.83 0 1.5-.67 1.5-1.5s-.67-1.5-1.5-1.5h-10c-.83 0-1.5.67-1.5 1.5s.67 1.5 1.5 1.5m10 8h-10c-.83 0-1.5-.67-1.5-1.5s.67-1.5 1.5-1.5h10c.83 0 1.5.67 1.5 1.5s-.67 1.5-1.5 1.5m-10 8h10c.83 0 1.5-.67 1.5-1.5s-.67-1.5-1.5-1.5h-10c-.83 0-1.5.67-1.5 1.5s.67 1.5 1.5 1.5m10 8h-10c-.83 0-1.5-.67-1.5-1.5s.67-1.5 1.5-1.5h10c.83 0 1.5.67 1.5 1.5s-.67 1.5-1.5 1.5" clip-rule="evenodd"/></svg>
